public/images/icons/32x32/mathematiques_32_purple.svg

<svg height="32" viewBox="0 0 32 32" width="32" xmlns="http://www.w3.org/2000/svg"><g fill="#1e1169" stroke="#1e1169" stroke-width=".4" transform="translate(4.368 4.368)"><path d="m18.4475252 7.27829447c-.1353846-.06769231-.3046153-.03384616-.4061538.06769231l-10.66153847 10.69538462c-.10153846.1015385-.13538462.2707692-.06769231.4061538.06769231.1353847.20307692.2369231.33846154.2369231h10.66153844c.2030769 0 .3723077-.1692308.3723077-.3723077v-10.69538459c0-.13538462-.1015384-.27076923-.2369231-.33846154zm-.5076923 10.66153843h-9.40923074l9.40923074-9.40923074z"/><path d="m21.4259868.03521754c-.1353846-.0676923-.3046154-.03384615-.4061539.06769231l-20.91692305 20.91692305c-.10153846.1015385-.13538461.2707693-.06769231.4061539.06769231.1353846.20307693.2369231.33846154.2369231h20.91692312c.2030769 0 .3723077-.1692308.3723077-.3723077v-20.91692312c0-.13538461-.1015385-.27076923-.2369231-.33846154zm-2.7415385 20.88307696v-1.1169231c0-.2030769-.1692308-.3723077-.3723077-.3723077s-.3723077.1692308-.3723077.3723077v1.1169231h-1.4892307v-1.1169231c0-.2030769-.1692308-.3723077-.3723077-.3723077-.203077 0-.3723077.1692308-.3723077.3723077v1.1169231h-1.4892308v-1.1169231c0-.2030769-.1692308-.3723077-.3723077-.3723077s-.3723077.1692308-.3723077.3723077v1.1169231h-1.4892307v-1.1169231c0-.2030769-.1692308-.3723077-.3723077-.3723077-.203077 0-.3723077.1692308-.3723077.3723077v1.1169231h-1.4892308v-1.1169231c0-.2030769-.16923077-.3723077-.37230769-.3723077-.20307693 0-.3723077.1692308-.3723077.3723077v1.1169231h-1.48923077v-1.1169231c0-.2030769-.16923076-.3723077-.37230769-.3723077-.20307692 0-.37230769.1692308-.37230769.3723077v1.1169231h-1.48923077v-1.1169231c0-.2030769-.16923077-.3723077-.37230769-.3723077s-.37230769.1692308-.37230769.3723077v1.1169231h-3.24923077l19.63076926-19.63076926v3.21538461h-1.1169231c-.2030769 0-.3723077.16923077-.3723077.37230769 0 .20307693.1692308.3723077.3723077.3723077h1.1169231v1.48923077h-1.1169231c-.2030769 0-.3723077.16923077-.3723077.37230769s.1692308.37230769.3723077.37230769h1.1169231v1.48923077h-1.1169231c-.2030769 0-.3723077.16923077-.3723077.37230769 0 .20307693.1692308.37230769.3723077.37230769h1.1169231v1.48923076h-1.1169231c-.2030769 0-.3723077.1692308-.3723077.3723077s.1692308.3723077.3723077.3723077h1.1169231v1.4892308h-1.1169231c-.2030769 0-.3723077.1692307-.3723077.3723077 0 .2030769.1692308.3723077.3723077.3723077h1.1169231v1.4892307h-1.1169231c-.2030769 0-.3723077.1692308-.3723077.3723077s.1692308.3723077.3723077.3723077h1.1169231v1.5230769h-1.1169231c-.2030769 0-.3723077.1692308-.3723077.3723077s.1692308.3723077.3723077.3723077h1.1169231v2.2338462z"/></g></svg>

<?xml version="1.0" encoding="UTF-8"?>
<svg width="32px" height="32px" viewBox="0 0 32 32" version="1.1" xmlns="http://www.w3.org/2000/svg" xmlns:xlink="http://www.w3.org/1999/xlink">
    <title>icone/32x32/math_32_purple</title>
    <g id="icone/32x32/math_32_purple" stroke="none" stroke-width="1" fill="none" fill-rule="evenodd">
        <g id="noun_Ruler_2376504" transform="translate(4.367735, 4.367735)" fill="#1E1169" fill-rule="nonzero" stroke="#1E1169" stroke-width="0.4">
            <g id="Group-2">
                <path d="M18.4475252,7.27829447 C18.3121406,7.21060216 18.1429099,7.24444831 18.0413714,7.34598678 L7.37983293,18.0413714 C7.27829447,18.1429099 7.24444831,18.3121406 7.31214062,18.4475252 C7.37983293,18.5829099 7.51521754,18.6844483 7.65060216,18.6844483 L18.3121406,18.6844483 C18.5152175,18.6844483 18.6844483,18.5152175 18.6844483,18.3121406 L18.6844483,7.61675601 C18.6844483,7.48137139 18.5829099,7.34598678 18.4475252,7.27829447 Z M17.9398329,17.9398329 L8.53060216,17.9398329 L17.9398329,8.53060216 L17.9398329,17.9398329 Z" id="Shape"></path>
                <path d="M21.4259868,0.0352175443 C21.2906022,-0.0324747634 21.1213714,0.00137139047 21.0198329,0.102909852 L0.102909852,21.0198329 C0.00137139047,21.1213714 -0.0324747634,21.2906022 0.0352175443,21.4259868 C0.102909852,21.5613714 0.238294467,21.6629099 0.373679083,21.6629099 L21.2906022,21.6629099 C21.4936791,21.6629099 21.6629099,21.4936791 21.6629099,21.2906022 L21.6629099,0.373679083 C21.6629099,0.238294467 21.5613714,0.102909852 21.4259868,0.0352175443 Z M18.6844483,20.9182945 L18.6844483,19.8013714 C18.6844483,19.5982945 18.5152175,19.4290637 18.3121406,19.4290637 C18.1090637,19.4290637 17.9398329,19.5982945 17.9398329,19.8013714 L17.9398329,20.9182945 L16.4506022,20.9182945 L16.4506022,19.8013714 C16.4506022,19.5982945 16.2813714,19.4290637 16.0782945,19.4290637 C15.8752175,19.4290637 15.7059868,19.5982945 15.7059868,19.8013714 L15.7059868,20.9182945 L14.216756,20.9182945 L14.216756,19.8013714 C14.216756,19.5982945 14.0475252,19.4290637 13.8444483,19.4290637 C13.6413714,19.4290637 13.4721406,19.5982945 13.4721406,19.8013714 L13.4721406,20.9182945 L11.9829099,20.9182945 L11.9829099,19.8013714 C11.9829099,19.5982945 11.8136791,19.4290637 11.6106022,19.4290637 C11.4075252,19.4290637 11.2382945,19.5982945 11.2382945,19.8013714 L11.2382945,20.9182945 L9.7490637,20.9182945 L9.7490637,19.8013714 C9.7490637,19.5982945 9.57983293,19.4290637 9.37675601,19.4290637 C9.17367908,19.4290637 9.00444831,19.5982945 9.00444831,19.8013714 L9.00444831,20.9182945 L7.51521754,20.9182945 L7.51521754,19.8013714 C7.51521754,19.5982945 7.34598678,19.4290637 7.14290985,19.4290637 C6.93983293,19.4290637 6.77060216,19.5982945 6.77060216,19.8013714 L6.77060216,20.9182945 L5.28137139,20.9182945 L5.28137139,19.8013714 C5.28137139,19.5982945 5.11214062,19.4290637 4.9090637,19.4290637 C4.70598678,19.4290637 4.53675601,19.5982945 4.53675601,19.8013714 L4.53675601,20.9182945 L1.28752524,20.9182945 L20.9182945,1.28752524 L20.9182945,4.50290985 L19.8013714,4.50290985 C19.5982945,4.50290985 19.4290637,4.67214062 19.4290637,4.87521754 C19.4290637,5.07829447 19.5982945,5.24752524 19.8013714,5.24752524 L20.9182945,5.24752524 L20.9182945,6.73675601 L19.8013714,6.73675601 C19.5982945,6.73675601 19.4290637,6.90598678 19.4290637,7.1090637 C19.4290637,7.31214062 19.5982945,7.48137139 19.8013714,7.48137139 L20.9182945,7.48137139 L20.9182945,8.97060216 L19.8013714,8.97060216 C19.5982945,8.97060216 19.4290637,9.13983293 19.4290637,9.34290985 C19.4290637,9.54598678 19.5982945,9.71521754 19.8013714,9.71521754 L20.9182945,9.71521754 L20.9182945,11.2044483 L19.8013714,11.2044483 C19.5982945,11.2044483 19.4290637,11.3736791 19.4290637,11.576756 C19.4290637,11.7798329 19.5982945,11.9490637 19.8013714,11.9490637 L20.9182945,11.9490637 L20.9182945,13.4382945 L19.8013714,13.4382945 C19.5982945,13.4382945 19.4290637,13.6075252 19.4290637,13.8106022 C19.4290637,14.0136791 19.5982945,14.1829099 19.8013714,14.1829099 L20.9182945,14.1829099 L20.9182945,15.6721406 L19.8013714,15.6721406 C19.5982945,15.6721406 19.4290637,15.8413714 19.4290637,16.0444483 C19.4290637,16.2475252 19.5982945,16.416756 19.8013714,16.416756 L20.9182945,16.416756 L20.9182945,17.9398329 L19.8013714,17.9398329 C19.5982945,17.9398329 19.4290637,18.1090637 19.4290637,18.3121406 C19.4290637,18.5152175 19.5982945,18.6844483 19.8013714,18.6844483 L20.9182945,18.6844483 L20.9182945,20.9182945 L18.6844483,20.9182945 Z" id="Shape"></path>
            </g>
        </g>
    </g>
</svg>
